src/assets/svg-icons/web-light-icon.svg

<svg width="34" height="35" viewBox="0 0 34 35" fill="none" xmlns="http://www.w3.org/2000/svg">
<g clip-path="url(#clip0_2905_12975)">
<path d="M17.6077 34.9646C20.2076 34.5952 22.4869 31.8816 23.9211 27.8741C21.8478 27.4098 19.732 27.1605 17.6077 27.1309V34.9646Z" fill="#F5F5F5"/>
<path d="M21.7615 34.3268C21.9152 34.2823 22.0683 34.2375 22.2202 34.1883C22.3484 34.147 22.4748 34.1025 22.6012 34.0583C22.7507 34.0067 22.8997 33.9536 23.048 33.8972C23.1744 33.8491 23.2996 33.7981 23.4251 33.7471C23.5699 33.6863 23.7144 33.6257 23.8574 33.5649C23.9823 33.51 24.1063 33.4525 24.2304 33.3946C24.3707 33.3284 24.5105 33.2611 24.649 33.1911C24.7707 33.1291 24.892 33.0659 25.0137 33.0009C25.1498 32.9279 25.2851 32.8534 25.4195 32.7769C25.5412 32.708 25.6584 32.6389 25.7768 32.5677C25.9085 32.4867 26.0396 32.4057 26.1699 32.3247C26.2865 32.2505 26.4028 32.1752 26.5176 32.0974C26.6458 32.0111 26.7722 31.9212 26.898 31.8313C27.011 31.7503 27.1235 31.6696 27.2339 31.5883C27.3555 31.4945 27.4801 31.3975 27.6021 31.3002C27.7104 31.2139 27.8184 31.1281 27.9249 31.0394C28.0462 30.9385 28.1625 30.8341 28.2803 30.7296C28.3836 30.638 28.4874 30.5472 28.5883 30.4531C28.7043 30.3448 28.8174 30.2327 28.9304 30.1214C29.0283 30.0247 29.1274 29.9294 29.2232 29.8303C29.241 29.8119 29.258 29.7921 29.2764 29.7731C27.951 29.0886 26.555 28.5513 25.1128 28.1709C24.3627 30.5629 23.0278 32.7306 21.2292 34.477C21.2785 34.4642 21.3278 34.4538 21.377 34.4411C21.507 34.4046 21.6345 34.3645 21.7615 34.3268Z" fill="#F5F5F5"/>
<path d="M34.0002 18.6064H26.7144C26.6868 21.4512 26.2741 24.2791 25.4875 27.0131C27.0915 27.4416 28.6394 28.0575 30.0992 28.8482C32.4959 25.9596 33.8678 22.3579 34.0002 18.6064Z" fill="#F5F5F5"/>
<path d="M17.6077 17.3908H25.499C25.4681 14.6467 25.0655 11.9194 24.3027 9.2832C22.1053 9.78433 19.8611 10.052 17.6077 10.0816V17.3908Z" fill="#F5F5F5"/>
<path d="M17.6077 1.03223V8.866C19.732 8.83604 21.8478 8.5871 23.9211 8.12277C22.4869 4.11524 20.2076 1.40162 17.6077 1.03223Z" fill="#F5F5F5"/>
<path d="M17.6077 25.9157C19.8611 25.9456 22.1053 26.2132 24.3027 26.7144C25.0655 24.0782 25.4681 21.3506 25.499 18.6064H17.6077V25.9157Z" fill="#F5F5F5"/>
<path d="M30.0992 7.14844C28.6394 7.93914 27.0915 8.55509 25.4875 8.98353C26.2741 11.7176 26.6868 14.5455 26.7144 17.3902H34.0002C33.8675 13.6391 32.4956 10.0374 30.0992 7.14844Z" fill="#F5F5F5"/>
<path d="M29.2782 6.22682C29.2604 6.20872 29.2435 6.18913 29.2259 6.17044C29.1298 6.07134 29.0301 5.97581 28.9322 5.87938C28.8195 5.76812 28.707 5.65567 28.5907 5.54767C28.4901 5.45391 28.386 5.3652 28.2827 5.27174C28.1649 5.1673 28.0472 5.06197 27.9261 4.96109C27.8211 4.87238 27.7134 4.78752 27.6066 4.70237C27.4849 4.60387 27.3603 4.50595 27.2351 4.4119C27.1253 4.32912 27.014 4.24901 26.9022 4.1689C26.7752 4.07752 26.6476 3.98643 26.5183 3.8995C26.4046 3.82295 26.2892 3.74818 26.1738 3.6749C26.0424 3.59034 25.9112 3.50756 25.7774 3.42745C25.6602 3.35713 25.5418 3.2877 25.4231 3.22035C25.2873 3.14262 25.1511 3.06726 25.0137 2.99367C24.892 2.93285 24.7707 2.86669 24.6491 2.80586C24.5093 2.73525 24.3684 2.6673 24.2239 2.60055C24.1022 2.54269 23.9788 2.48632 23.8536 2.43143C23.7097 2.36764 23.5643 2.31008 23.4192 2.24925C23.294 2.19822 23.1694 2.14778 23.043 2.09972C22.8956 2.04334 22.746 1.99053 22.5965 1.9389C22.4701 1.8944 22.3437 1.85019 22.2155 1.80865C22.0636 1.7594 21.9117 1.7146 21.7556 1.6695C21.6292 1.63241 21.5022 1.59473 21.3744 1.56091C21.3254 1.54756 21.2756 1.53717 21.2263 1.52441C23.0249 3.27079 24.3595 5.43819 25.1098 7.83048C26.5536 7.45011 27.9516 6.91249 29.2782 6.22682Z" fill="#F5F5F5"/>
<path d="M0 17.3902H7.28577C7.31336 14.5455 7.72607 11.7176 8.51233 8.98353C6.90866 8.55539 5.36078 7.93944 3.90101 7.14844C1.50427 10.0371 0.132328 13.6391 0 17.3902Z" fill="#F5F5F5"/>
<path d="M16.3923 34.9646V27.1309C14.268 27.1608 12.1522 27.4098 10.0789 27.8741C11.5128 31.8816 13.7924 34.5952 16.3923 34.9646Z" fill="#F5F5F5"/>
<path d="M16.3923 18.6064H8.50098C8.53183 21.3506 8.93416 24.0782 9.69727 26.7144C11.8946 26.2129 14.1386 25.9453 16.3923 25.9157V18.6064Z" fill="#F5F5F5"/>
<path d="M16.3923 1.03223C13.7924 1.40162 11.5128 4.11524 10.0789 8.12277C12.1522 8.5874 14.268 8.83633 16.3923 8.866V1.03223Z" fill="#F5F5F5"/>
<path d="M16.3923 10.0816C14.1389 10.052 11.8946 9.78433 9.69727 9.2832C8.93416 11.9194 8.53183 14.6467 8.50098 17.3908H16.3923V10.0816Z" fill="#F5F5F5"/>
<path d="M12.7692 1.52441C12.7199 1.53717 12.6707 1.54756 12.6214 1.56031C12.4927 1.59473 12.3657 1.63301 12.2375 1.67009C12.085 1.7146 11.9337 1.7594 11.7806 1.80806C11.6515 1.84989 11.5245 1.8944 11.3976 1.93861C11.2489 1.99112 11.1 2.04334 10.9528 2.09912C10.8258 2.14778 10.7006 2.19822 10.5748 2.24985C10.4303 2.31067 10.2855 2.37149 10.1428 2.43202C10.0176 2.48691 9.89388 2.54447 9.76986 2.60233C9.62952 2.66849 9.48977 2.73584 9.35121 2.80586C9.22957 2.86787 9.10792 2.93137 8.98657 2.99605C8.85038 3.06904 8.71538 3.1438 8.58128 3.22035C8.45963 3.2883 8.34006 3.35802 8.22286 3.42923C8.09083 3.50874 7.96028 3.59093 7.83033 3.67223C7.71343 3.74699 7.59742 3.82236 7.4826 3.90009C7.35442 3.98643 7.22803 4.07633 7.10223 4.16623C6.98918 4.24723 6.87673 4.32793 6.76606 4.40953C6.64175 4.50299 6.52307 4.6003 6.39786 4.69733C6.28986 4.78367 6.18097 4.86941 6.07535 4.95872C5.9537 5.059 5.83828 5.16285 5.72109 5.26669C5.61724 5.35926 5.51251 5.44916 5.41103 5.545C5.29562 5.6527 5.18317 5.76456 5.07042 5.87552C4.97251 5.97225 4.87282 6.06778 4.77669 6.16718C4.75918 6.18557 4.74227 6.20575 4.72388 6.22444C6.04894 6.90923 7.44521 7.44655 8.88747 7.82692C9.63753 5.43611 10.9715 3.2699 12.7692 1.52441Z" fill="#F5F5F5"/>
<path d="M5.06772 30.1169C5.18076 30.2282 5.29321 30.3406 5.40922 30.4489C5.5101 30.5424 5.61394 30.6311 5.71749 30.7245C5.83528 30.8293 5.95307 30.9343 6.07412 31.0352C6.17915 31.1233 6.28626 31.2085 6.39367 31.2939C6.51532 31.3924 6.63667 31.4903 6.76543 31.585C6.87492 31.6672 6.98618 31.7467 7.09744 31.8283C7.22443 31.9194 7.3526 32.0104 7.48196 32.098C7.5956 32.1745 7.71102 32.2493 7.82643 32.3229C7.95787 32.4071 8.08901 32.4899 8.22282 32.57C8.34002 32.6406 8.4584 32.7098 8.57708 32.7774C8.71297 32.8552 8.84916 32.9305 8.98653 33.0038C9.10788 33.0646 9.22953 33.1308 9.35118 33.1916C9.49092 33.2622 9.63185 33.3302 9.77635 33.3972C9.89799 33.4545 10.0214 33.5109 10.1466 33.566C10.2905 33.6298 10.4356 33.6874 10.581 33.7482C10.7062 33.7993 10.8308 33.8497 10.9572 33.8978C11.1047 33.9544 11.2542 34.0072 11.4037 34.0589C11.5301 34.1031 11.6565 34.1476 11.7847 34.1888C11.9366 34.2381 12.0885 34.2832 12.2446 34.328C12.371 34.3651 12.498 34.4027 12.6256 34.4369C12.6748 34.4502 12.7247 34.4606 12.7739 34.4734C10.9753 32.7267 9.64075 30.5593 8.8904 28.167C7.44814 28.5477 6.05187 29.085 4.72681 29.7701C4.74461 29.7882 4.76152 29.8077 4.77932 29.8264C4.87041 29.9249 4.96862 30.0205 5.06772 30.1169Z" fill="#F5F5F5"/>
<path d="M3.90101 28.8482C5.36078 28.0575 6.90866 27.4416 8.51233 27.0131C7.72607 24.2791 7.31336 21.4512 7.28577 18.6064H0C0.132625 22.3576 1.50427 25.9593 3.90101 28.8482Z" fill="#F5F5F5"/>
</g>
<defs>
<clipPath id="clip0_2905_12975">
<rect width="34" height="34" fill="white" transform="translate(0 0.984375)"/>
</clipPath>
</defs>
</svg>

<svg xmlns="http://www.w3.org/2000/svg" width="34" height="35" fill="none" viewBox="0 0 34 35"><g fill="#F5F5F5" clip-path="url(#a)"><path d="M17.608 34.965c2.6-.37 4.879-3.083 6.313-7.09a30.859 30.859 0 0 0-6.313-.744v7.834Zm4.154-.638c.153-.045.306-.09.458-.139.128-.041.255-.086.381-.13.15-.051.299-.104.447-.16.126-.049.252-.1.377-.15l.432-.183A18.308 18.308 0 0 0 25.014 33a18.431 18.431 0 0 0 1.156-.676 14.387 14.387 0 0 0 .728-.494c.113-.08.226-.161.336-.243.121-.094.246-.19.368-.288.108-.086.216-.172.323-.26.121-.101.238-.206.355-.31.104-.092.207-.183.308-.277.116-.108.23-.22.342-.332.098-.096.197-.192.293-.29l.053-.058a20.426 20.426 0 0 0-4.163-1.602 15.08 15.08 0 0 1-3.884 6.306c.05-.013.099-.023.148-.036.13-.036.258-.077.385-.114ZM34 18.606h-7.286a31.51 31.51 0 0 1-1.226 8.407 21.137 21.137 0 0 1 4.611 1.835A16.977 16.977 0 0 0 34 18.606ZM17.608 17.39h7.891a30.4 30.4 0 0 0-1.196-8.107 32.002 32.002 0 0 1-6.695.799v7.309Zm0-16.358v7.834c2.124-.03 4.24-.279 6.313-.743-1.434-4.008-3.713-6.721-6.313-7.09Zm0 24.884c2.253.03 4.497.297 6.695.798a30.403 30.403 0 0 0 1.196-8.108h-7.891v7.31ZM30.1 7.148a21.134 21.134 0 0 1-4.613 1.836 31.51 31.51 0 0 1 1.227 8.406H34a16.983 16.983 0 0 0-3.9-10.242Zm-.822-.921c-.018-.018-.034-.038-.052-.057-.096-.099-.196-.194-.294-.29a13.35 13.35 0 0 0-.341-.332c-.1-.094-.205-.183-.308-.276-.118-.105-.236-.21-.357-.31-.105-.09-.213-.174-.32-.26a13.095 13.095 0 0 0-.704-.533 14.772 14.772 0 0 0-1.125-.742 16.905 16.905 0 0 0-.763-.433c-.122-.061-.243-.127-.365-.188-.14-.07-.28-.139-.425-.205a13.294 13.294 0 0 0-.37-.17c-.144-.063-.29-.12-.435-.182-.125-.05-.25-.101-.376-.15-.147-.056-.297-.108-.447-.16a14.833 14.833 0 0 0-.84-.27c-.127-.037-.254-.074-.382-.108l-.148-.037A15.079 15.079 0 0 1 25.11 7.83a20.394 20.394 0 0 0 4.168-1.603ZM0 17.39h7.286c.027-2.845.44-5.672 1.226-8.406a21.107 21.107 0 0 1-4.611-1.836A16.978 16.978 0 0 0 0 17.39Zm16.392 17.575V27.13a30.88 30.88 0 0 0-6.313.743c1.434 4.008 3.713 6.721 6.313 7.09Zm0-16.359H8.501c.03 2.745.433 5.472 1.196 8.108a31.975 31.975 0 0 1 6.695-.798v-7.31Zm0-17.574c-2.6.37-4.88 3.083-6.313 7.09a30.84 30.84 0 0 0 6.313.744V1.032Zm0 9.05a32.001 32.001 0 0 1-6.695-.799 30.386 30.386 0 0 0-1.196 8.108h7.891v-7.31ZM12.77 1.524l-.149.036c-.128.035-.255.073-.383.11-.153.045-.304.09-.457.138-.13.042-.257.086-.383.13-.15.053-.298.105-.445.161-.127.049-.252.1-.378.15l-.432.183a17.555 17.555 0 0 0-1.92.997c-.132.08-.263.162-.393.243a15.897 15.897 0 0 0-1.064.738c-.124.093-.243.19-.368.287-.108.087-.217.172-.323.262-.121.1-.237.204-.354.308-.104.092-.208.182-.31.278-.115.108-.228.22-.34.33-.098.097-.198.193-.294.292l-.053.057a20.4 20.4 0 0 0 4.163 1.603 15.073 15.073 0 0 1 3.882-6.303ZM5.068 30.117c.113.111.225.224.341.332.101.093.205.182.308.275a13.39 13.39 0 0 0 .677.57c.121.098.243.196.371.291.11.082.221.162.332.243.127.091.256.182.385.27.114.077.229.151.344.225a15.367 15.367 0 0 0 .751.454c.136.078.272.154.41.227.12.06.243.127.364.188.14.07.28.138.425.205.122.058.245.114.37.169.144.064.29.121.435.182.125.051.25.102.376.15.148.056.297.11.447.16a13.934 13.934 0 0 0 .84.27c.127.037.254.075.382.109.049.013.099.024.148.036a15.083 15.083 0 0 1-3.884-6.306c-1.442.38-2.838.918-4.163 1.603l.052.056c.091.099.19.194.289.29Zm-1.167-1.269a21.14 21.14 0 0 1 4.611-1.835 31.523 31.523 0 0 1-1.226-8.407H0a16.98 16.98 0 0 0 3.901 10.242Z"/></g><defs><clipPath id="a"><path fill="#fff" d="M0 .984h34v34H0z"/></clipPath></defs></svg>
